X: 21003
T: Kate of Aberdeen
%R: strathepsy
B: James Oswald "The Caledonian Pocket Companion" v.2 p.100 #3
Z: 2019 John Chambers <jc:trillian.mit.edu>
M: C|
L: 1/8
K: D
"_Slow"F>G |\
A3B {de}Tf2e<d | B2e>f {ef}g2 (f/e/d) |\
c2d2 (ba)(gf) | {f2}e4 z2(F>G) |\
A3B {de}Tf2e<d |
B2e>f {ef}g2 (f/e/d) |\
c2(db) (af)(ge) | d6 :: (fg) |\
(af)(Ted) a3b | afTed {d}c2(BA) |
{G}F3A {de}f2Te>d | {d2}e6 (fg) |\
afTed g>aba | gfTed B2(dB) |\
A3B {de}f2 Te>d | d6 :|


